src/main/resources/icons/KubernetesIcons/icons/helmChart.svg

<svg width="16" height="16" viewBox="0 0 16 16" fill="none" xmlns="http://www.w3.org/2000/svg">
<path fill-rule="evenodd" clip-rule="evenodd" d="M14 6.59971V5H11V6.02242C10.6566 6.05337 10.3223 6.11588 10 6.20703V5H6V7H8.33692C7.93379 7.28389 7.57052 7.62057 7.25716 8H6V10V11V11.5V13H6.20703C6.30564 13.3486 6.43777 13.6832 6.59971 14H1V2H15V7V7.25716C14.6929 7.00353 14.3578 6.78261 14 6.59971ZM5 7V5H2V7H5ZM2 8V10H5V8H2ZM2 13V11H5V13H2Z" fill="#9AA7B0"/>
<path fill-rule="evenodd" clip-rule="evenodd" d="M11.5289 13.759C11.5206 13.7584 11.5154 13.7513 11.5064 13.7513H11.4936C11.4852 13.7513 11.4794 13.7584 11.4711 13.759C10.2355 13.7436 9.23843 12.7394 9.23843 11.5C9.23843 10.2509 10.2509 9.23843 11.5 9.23843C12.7491 9.23843 13.7622 10.2509 13.7622 11.5C13.7622 12.7394 12.7645 13.7436 11.5289 13.759ZM15.4516 11.0821L14.6757 11.1162C14.6037 10.5184 14.3723 9.97579 14.0187 9.52514L14.5889 9.00186C14.7496 8.84243 14.8461 8.48307 14.6866 8.32236L14.6776 8.31336C14.5169 8.15393 14.1582 8.251 13.9988 8.41107L13.4749 8.98129C13.0242 8.62836 12.4816 8.39629 11.8844 8.32493L11.9179 7.549C11.9179 7.32271 11.7321 7 11.5064 7H11.4936C11.2679 7 11.0821 7.32271 11.0821 7.549L11.1156 8.32493C10.5184 8.39629 9.97579 8.62836 9.52514 8.98129L9.00121 8.41107C8.84179 8.251 8.48307 8.15393 8.32236 8.31336L8.31336 8.32236C8.15393 8.48307 8.25036 8.84243 8.41107 9.00186L8.98129 9.52514C8.62771 9.97579 8.39629 10.5184 8.32493 11.1162L7.549 11.0821C7.32271 11.0821 7 11.2679 7 11.4942V11.5064C7 11.7327 7.32271 11.9185 7.549 11.9185L8.32493 11.8844C8.39629 12.4823 8.62771 13.0242 8.98129 13.4755L8.41107 13.9988C8.25036 14.1582 8.15393 14.5176 8.31336 14.6783L8.32236 14.6866C8.48307 14.8461 8.84179 14.7496 9.00121 14.5889L9.52514 14.0187C9.97579 14.3723 10.5184 14.6037 11.1156 14.6757L11.0821 15.4516C11.0821 15.6773 11.2679 16 11.4936 16H11.5064C11.7321 16 11.9179 15.6773 11.9179 15.4516L11.8844 14.6757C12.4816 14.6037 13.0242 14.3723 13.4749 14.0187L13.9988 14.5889C14.1582 14.7496 14.5169 14.8461 14.6776 14.6866L14.6866 14.6783C14.8461 14.5176 14.7496 14.1582 14.5889 13.9988L14.0187 13.4755C14.3723 13.0242 14.6037 12.4823 14.6757 11.8844L15.4516 11.9185C15.6773 11.9185 16 11.7327 16 11.5064V11.4942C16 11.2679 15.6773 11.0821 15.4516 11.0821Z" fill="#297FA5"/>
</svg>

<svg width="16" height="16" viewBox="0 0 16 16" fill="none" xmlns="http://www.w3.org/2000/svg"><rect id="frame" width="16" height="16" fill="none"/><path fill-rule="evenodd" clip-rule="evenodd" d="M14 6.6V5h-3v1.022a5.48 5.48 0 0 0-1 .185V5H6v2h2.337c-.403.284-.766.62-1.08 1H6v5h.207c.099.349.23.683.393 1H1V2h14v5.257a5.507 5.507 0 0 0-1-.657zM5 7V5H2v2h3zM2 8v2h3V8H2zm0 5v-2h3v2H2z" fill="#9AA7B0"/><path fill-rule="evenodd" clip-rule="evenodd" d="M11.529 13.759c-.008 0-.014-.008-.023-.008h-.012c-.009 0-.015.007-.023.008a2.26 2.26 0 0 1 .029-4.52 2.26 2.26 0 1 1 .029 4.52zm3.923-2.677l-.776.034a3.18 3.18 0 0 0-.657-1.59l.57-.524c.16-.16.257-.519.098-.68l-.01-.009c-.16-.16-.519-.062-.678.098l-.524.57a3.18 3.18 0 0 0-1.59-.656l.033-.776c0-.226-.186-.549-.412-.549h-.012c-.226 0-.412.323-.412.549l.034.776a3.18 3.18 0 0 0-1.59.656L9 8.411c-.16-.16-.518-.257-.679-.098l-.009.01c-.16.16-.063.52.098.679l.57.523c-.353.45-.585.993-.656 1.591l-.776-.034c-.226 0-.549.186-.549.412v.012c0 .227.323.412.549.412l.776-.034c.071.598.303 1.14.656 1.591l-.57.524c-.16.16-.257.519-.098.68l.01.008c.16.16.519.063.678-.098l.524-.57c.45.353.993.585 1.59.657l-.033.776c0 .225.186.548.412.548h.012c.226 0 .412-.323.412-.548l-.034-.776a3.18 3.18 0 0 0 1.59-.657l.525.57c.16.16.518.257.679.098l.009-.009c.16-.16.063-.52-.098-.68l-.57-.522c.353-.452.585-.994.657-1.592l.776.034c.225 0 .548-.185.548-.412v-.012c0-.226-.323-.412-.548-.412z" fill="#297FA5"/></svg>
